dist/svgs/unicons/line/calender.svg

<svg xmlns="http://www.w3.org/2000/svg" viewBox="0 0 24 24"><path d="M19 4h-2V3a1 1 0 00-2 0v1H9V3a1 1 0 00-2 0v1H5a3 3 0 00-3 3v12a3 3 0 003 3h14a3 3 0 003-3V7a3 3 0 00-3-3zm1 15a1 1 0 01-1 1H5a1 1 0 01-1-1v-7h16zm0-9H4V7a1 1 0 011-1h2v1a1 1 0 002 0V6h6v1a1 1 0 002 0V6h2a1 1 0 011 1z"/></svg>

<svg xmlns="http://www.w3.org/2000/svg" viewBox="0 0 24 24"><path d="M19,4H17V3a1,1,0,0,0-2,0V4H9V3A1,1,0,0,0,7,3V4H5A3,3,0,0,0,2,7V19a3,3,0,0,0,3,3H19a3,3,0,0,0,3-3V7A3,3,0,0,0,19,4Zm1,15a1,1,0,0,1-1,1H5a1,1,0,0,1-1-1V12H20Zm0-9H4V7A1,1,0,0,1,5,6H7V7A1,1,0,0,0,9,7V6h6V7a1,1,0,0,0,2,0V6h2a1,1,0,0,1,1,1Z"/></svg>
